X: 12232
T: Fair Wind, The
R: reel
M: 4/4
K: Gmajor
|:E|G2GG G3A|BAGA BAAB|G2GG G3A|BAGE EDD:|
|:A|BddB G3A|BddB cA~A2|BddB G3A|BAGE EDD:|
|:E|GE~E2 c3A|BddB AcBA|GE~E2 c3A|BAGE EDD:|

